X: 1
T: My Love Is In Bulgaria
M: 6/8
L: 1/8
R: jig
K: Gmaj
K:7/8
|:FDF ABcB|Add Ad d2|FDF ABcB|GAG FD D2|
FDF ABcB|Add defg|age dfAF|GAG FD D2:|
fdg fdec|Add Ad d2|fdg fdAF|GAG FD D2|
fdg fdec|Add defg|age fdAF|GAG FD D2:|
